X: 21301
M: 2/4
L: 1/16
K: G
[|\
b4 g4 | d6 ^ce | d2^ce d2ce | d2g2 b4 |\
bc'aa a4 | abgg g4 | e2ag {g}fefd | g2b2g2z2 H|]
[|\
b4 g4 | d6 ^ce | d2^ce d2ce | d2g2 b4 |\
bc'aa a4 | abgg g4 | e2ag {g}fefd | g2b2g2z2 |]


